X: 251
T:Ran-Tan
% Nottingham Music Database
Y:AABBCC
S:Whitby 1989, via EF
M:6/8
K:A
P:A
|:e|"A"agf "E7"efg|"A"aga f2e|"D"fed "A"cde|"E7"dcB c2A|
"A"agf "E7"efg|"A"aga f2e|"D"fed "A"cde|"E7"dcB "A"A2:|
P:B
|:B|"A"c2c ABc|"E"c2B -B2c|"D"d2d Bcd|"A"f2e -"E7"e2d|
"A"c2c ABc|"E7"c2B -B2e|"E7"efe dcB|"A"A3 -A2:|
K:Am
P:C
|:e|"Am"edc Bcd|"Dm"f2e -"Am"e2e|"Am"e2c d2c|"E7"cB2 B2d|
"E7"dcB Bcd|"E7"fe2 e2e|"E7"efe dcB|"Am"A3 -A2:|


